src/images/amenities/air_conditioner.svg

<svg width="20" height="21" viewBox="0 0 20 21" fill="none" xmlns="http://www.w3.org/2000/svg">
<g clip-path="url(#clip0_643:10)">
<path d="M15.897 13.6021L17.5131 16.8879L16.7903 17.2554L15.1741 13.9697L15.897 13.6021ZM9.87879 17.4822H10.6869V13.789L9.87879 13.7857V17.4822ZM3.05253 16.8879L3.77536 17.2554L5.39152 13.9697L4.66869 13.6021L3.05253 16.8879ZM19.9798 3.92859V11.3214C19.9798 11.9815 19.5495 12.9643 18.3636 12.9643H2.20202C1.01616 12.9643 0.585861 11.9815 0.585861 11.3214V3.92859H19.9798ZM17.5556 10.5H3.0101V12.1429H17.5556V10.5ZM19.1717 4.75002H1.39394V11.3214C1.39717 11.5116 1.46425 12.1429 2.20202 12.1429V9.67859H18.3636V12.1429C19.1325 12.1429 19.1717 11.4586 19.1717 11.3214V4.75002ZM17.1515 7.62502C17.598 7.62502 17.9596 7.25702 17.9596 6.80359C17.9596 6.35016 17.598 5.98216 17.1515 5.98216C16.7051 5.98216 16.3434 6.35016 16.3434 6.80359C16.3434 7.25702 16.7051 7.62502 17.1515 7.62502ZM16.8081 10.9107H3.75758V11.7322H16.8081V10.9107Z" fill="#39412F"/>
</g>
<defs>
<clipPath id="clip0_643:10">
<rect width="19.3939" height="19.7143" fill="white" transform="translate(0.585861 0.642822)"/>
</clipPath>
</defs>
</svg>

<svg xmlns="http://www.w3.org/2000/svg" viewBox="0 0 20 21"><g clip-path="url(#a)"><path d="m15.897 13.602 1.616 3.286-.723.367-1.616-3.285.723-.368Zm-6.018 3.88h.808V13.79l-.808-.003v3.696Zm-6.826-.594.722.367 1.617-3.285-.723-.368-1.616 3.286ZM19.98 3.928v7.393c0 .66-.43 1.643-1.616 1.643H2.202c-1.186 0-1.616-.982-1.616-1.643V3.93H19.98ZM17.556 10.5H3.01v1.643h14.546V10.5Zm1.616-5.75H1.394v6.571c.003.19.07.822.808.822V9.679h16.162v2.464c.768 0 .808-.684.808-.822V4.75Zm-2.02 2.875a.815.815 0 0 0 .808-.821.815.815 0 0 0-.809-.822.815.815 0 0 0-.808.822c0 .453.362.821.808.821Zm-.344 3.286H3.758v.821h13.05v-.821Z" fill="#39412F"/></g><defs><clipPath id="a"><path fill="#fff" transform="translate(.586 .643)" d="M0 0h19.394v19.714H0z"/></clipPath></defs></svg>
